src/actions/16/mail-encrypted-part.svg

<svg version="1.1" viewBox="0 0 16 16" xmlns="http://www.w3.org/2000/svg">
 <defs>
  <style id="current-color-scheme" type="text/css">.ColorScheme-Text {
        color:#363636;
      }</style>
 </defs>
 <path d="m12.5 8a3.5 3.5 0 0 0-3.5 3.5 3.5 3.5 0 0 0 3.5 3.5 3.5 3.5 0 0 0 3.5-3.5 3.5 3.5 0 0 0-3.5-3.5zm0 1c0.831 0 1.5 0.669 1.5 1.5v0.5c0.554 0 1 0.446 1 1v1c0 0.554-0.446 1-1 1h-3c-0.554 0-1-0.446-1-1v-1c0-0.554 0.446-1 1-1v-0.5c0-0.831 0.669-1.5 1.5-1.5zm0 1c-0.277 0-0.5 0.223-0.5 0.5v0.5h1v-0.5c0-0.277-0.223-0.5-0.5-0.5z" style="fill:currentColor" class="ColorScheme-Text"/>
 <path d="m2 2c-1.108 0-2 0.892-2 2v8c0 1.108 0.892 2 2 2h6.7617a4.5 4.5 0 0 1-0.49805-1h-6.2637c-0.48888 0-0.87448-0.35406-0.96289-0.81641l4.4609-3.5508 1.1699 0.93164c0.43359 0.34528 1.033 0.48042 1.6016 0.41602a4.5 4.5 0 0 1 1.0879-1.7012l-0.81836 0.65234c-0.30559 0.24335-0.77256 0.24335-1.0781 0l-6.4238-5.1152c0.088406-0.46235 0.47401-0.81641 0.96289-0.81641h12c0.48888 0 0.87448 0.35406 0.96289 0.81641l-4.8906 3.8945a4.5 4.5 0 0 1 2.4277-0.71094 4.5 4.5 0 0 1 0.04687 0.00195l2.4531-1.9531v2.7109a4.5 4.5 0 0 1 1 0.91406v-4.6738c0-1.108-0.892-2-2-2zm-1 3.0488 3.7051 2.9512-3.7051 2.9512z" style="fill:currentColor" class="ColorScheme-Text"/>
 <path style="fill:currentColor" class="ColorScheme-Text" d="m20 8c-0.82843 0-1.5 0.67157-1.5 1.5v1.5h-1v3h5v-3h-1v-1.5c0-0.82843-0.67157-1.5-1.5-1.5zm0 1c0.27614 0 0.5 0.22386 0.5 0.5v1.5h-1v-1.5c0-0.27614 0.22386-0.5 0.5-0.5zm-1.5 3h3v1h-3z"/>
</svg>

<svg xmlns="http://www.w3.org/2000/svg" viewBox="0 0 16 16">
    <defs>
        <style id="current-color-scheme" type="text/css">
            .ColorScheme-Text{color:#050505;opacity:.7}
        </style>
    </defs>
    <path d="M12.5 8A3.5 3.5 0 0 0 9 11.5a3.5 3.5 0 0 0 3.5 3.5 3.5 3.5 0 0 0 3.5-3.5A3.5 3.5 0 0 0 12.5 8zm0 1c.831 0 1.5.669 1.5 1.5v.5c.554 0 1 .446 1 1v1c0 .554-.446 1-1 1h-3c-.554 0-1-.446-1-1v-1c0-.554.446-1 1-1v-.5c0-.831.669-1.5 1.5-1.5zm0 1c-.277 0-.5.223-.5.5v.5h1v-.5c0-.277-.223-.5-.5-.5z" class="ColorScheme-Text" style="fill:currentColor"/>
    <path d="M2 2C.892 2 0 2.892 0 4v8c0 1.108.892 2 2 2h6.762a4.5 4.5 0 0 1-.498-1H2a.983.983 0 0 1-.963-.816l4.461-3.551 1.17.931c.433.346 1.033.48 1.601.416a4.5 4.5 0 0 1 1.088-1.7l-.818.652a.887.887 0 0 1-1.078 0L1.037 3.816A.983.983 0 0 1 2 3h12c.489 0 .874.354.963.816l-4.89 3.895A4.5 4.5 0 0 1 12.5 7a4.5 4.5 0 0 1 .047.002L15 5.049v2.71a4.5 4.5 0 0 1 1 .915V4c0-1.108-.892-2-2-2zM1 5.049 4.705 8 1 10.951zM20 8a1.5 1.5 0 0 0-1.5 1.5V11h-1v3h5v-3h-1V9.5A1.5 1.5 0 0 0 20 8zm0 1a.5.5 0 0 1 .5.5V11h-1V9.5A.5.5 0 0 1 20 9zm-1.5 3h3v1h-3z" class="ColorScheme-Text" style="fill:currentColor"/>
</svg>
